assets/bank-tab/Asset/Loan on Credit Card.svg

<svg width="24" height="24" viewBox="0 0 24 24" fill="none" xmlns="http://www.w3.org/2000/svg">
<g clip-path="url(#clip0_5371_1139)">
<path d="M2.14537 11.74C1.1856 11.74 0.369871 12.4653 0.264096 13.4399C-0.0876012 16.6803 -0.0885944 19.0401 0.264491 22.2997C0.370071 23.2744 1.18578 24 2.14562 24C3.16527 24 3.99878 23.1858 4.05733 22.1591C8.02562 22.7077 10.6614 22.7284 14.3702 22.2614C14.9307 22.1908 15.211 22.1555 15.5933 22.0634C15.9197 21.9848 16.4478 21.8079 16.7565 21.6739C17.1179 21.517 17.3309 21.395 17.757 21.1511C19.7818 19.9918 21.3334 18.796 23.4917 16.7648C24.0161 16.2713 24.148 15.4806 23.8253 14.8312C23.4137 14.0028 22.413 13.6864 21.6152 14.1323L16.376 17.0609C15.667 17.4572 14.8719 17.6649 14.0637 17.6649H10.0973C9.62723 17.6649 9.24618 17.2756 9.24619 16.7954C9.2462 16.3152 9.62724 15.9259 10.0973 15.9259H13.0436C13.81 15.9259 14.4313 15.2912 14.4313 14.5082C14.4313 13.8196 13.9467 13.2277 13.2807 13.1226C10.0774 12.6169 7.79344 12.6076 4.06117 13.3174L4.04561 13.4506C3.92716 12.4861 3.12155 11.74 2.14537 11.74Z" fill="#8F242A"/>
<path fill-rule="evenodd" clip-rule="evenodd" d="M4.16791 6.23464C4.09311 6.23464 4.03161 6.29489 4.02849 6.37124C3.98957 7.32347 3.9915 8.23288 4.03272 9.18186C4.08137 10.302 4.11512 11.0791 4.2824 11.6673L8.54421 11.2715C8.84771 11.2433 9.15315 11.2447 9.45639 11.2757L13.11 11.649C13.6926 11.7085 14.2482 11.9297 14.7166 12.2886L15.6298 12.9883C15.7927 13.1131 15.9088 13.2875 15.9641 13.4827C16.2408 13.468 16.5211 13.4517 16.8058 13.4337C18.6317 13.3182 19.5446 13.2604 20.1885 12.5955C20.8324 11.9306 20.8765 11.0519 20.9647 9.29455C21.0152 8.28829 21.0124 7.32899 20.9594 6.32048C20.9569 6.27234 20.9179 6.23464 20.8708 6.23464H4.16791ZM5.84517 10.0647C5.84517 9.64155 6.18092 9.29853 6.5951 9.29853H8.04005C8.45423 9.29853 8.78998 9.64155 8.78998 10.0647C8.78998 10.4878 8.45423 10.8308 8.04005 10.8308H6.5951C6.18092 10.8308 5.84517 10.4878 5.84517 10.0647Z" fill="#8F242A"/>
<path d="M4.79227 2.95343C4.43844 3.31944 4.26152 3.50244 4.38126 4.00167C4.39715 4.06793 4.45378 4.20637 4.48875 4.26448C4.75228 4.70232 5.16883 4.70232 6.00192 4.70232H18.9596C19.7975 4.70232 20.2165 4.70232 20.4802 4.26544C20.5162 4.20571 20.5738 4.06374 20.5897 3.99547C20.7059 3.49613 20.5265 3.31264 20.1677 2.94568C19.5183 2.28156 18.587 2.22953 16.7243 2.12546C13.7432 1.95891 11.2404 1.95824 8.26421 2.12311C6.38401 2.22727 5.4439 2.27935 4.79227 2.95343Z" fill="#8F242A"/>
</g>
<defs>
<clipPath id="clip0_5371_1139">
<rect width="24" height="24" fill="white"/>
</clipPath>
</defs>
</svg>

<svg xmlns="http://www.w3.org/2000/svg" width="24" height="24" fill="none" viewBox="0 0 24 24"><g fill="#8f242a" clip-path="url(#a)"><path d="M2.145 11.74c-.96 0-1.775.725-1.88 1.7-.353 3.24-.354 5.6 0 8.86.105.974.92 1.7 1.88 1.7 1.02 0 1.854-.814 1.912-1.84 3.969.548 6.604.568 10.313.101.56-.07.841-.105 1.223-.198a9 9 0 0 0 1.163-.39c.362-.156.575-.278 1.001-.522 2.025-1.16 3.576-2.355 5.735-4.386a1.65 1.65 0 0 0 .333-1.934 1.595 1.595 0 0 0-2.21-.699l-5.239 2.929a4.74 4.74 0 0 1-2.312.604h-3.967a.86.86 0 0 1-.85-.87c0-.48.38-.87.85-.87h2.947c.766 0 1.387-.634 1.387-1.417 0-.688-.484-1.28-1.15-1.385-3.204-.506-5.488-.515-9.22.194l-.015.134c-.119-.965-.924-1.711-1.9-1.711"/><path fill-rule="evenodd" d="M4.168 6.235a.14.14 0 0 0-.14.136 33 33 0 0 0 .005 2.81c.048 1.121.082 1.898.25 2.486l4.261-.396q.457-.042.912.005l3.654.373c.583.06 1.138.28 1.607.64l.913.7a.94.94 0 0 1 .334.494q.415-.022.842-.05c1.826-.115 2.739-.173 3.383-.838.643-.664.688-1.543.776-3.3.05-1.007.047-1.966-.006-2.975a.09.09 0 0 0-.088-.085zm1.677 3.83c0-.423.336-.766.75-.766H8.04c.414 0 .75.343.75.766a.76.76 0 0 1-.75.766H6.595a.76.76 0 0 1-.75-.766" clip-rule="evenodd"/><path d="M4.792 2.953c-.354.366-.53.55-.41 1.049a1.3 1.3 0 0 0 .107.262c.263.438.68.438 1.513.438H18.96c.837 0 1.256 0 1.52-.437a1.3 1.3 0 0 0 .11-.27c.116-.499-.064-.682-.422-1.05-.65-.663-1.581-.715-3.444-.82a72 72 0 0 0-8.46-.002c-1.88.104-2.82.156-3.472.83"/></g><defs><clipPath id="a"><path fill="#fff" d="M0 0h24v24H0z"/></clipPath></defs></svg>
